X: 1134
T: Remember Me Hornpipe
T: Carrycoats Hall Hornpipe
N: minus the triplet variation for the B-part, bars 2 &amp; 3, &amp; with 'CORRECTIONS' &amp; swing...
M: 4/4
L: 1/8
R: hornpipe
K: G Major
|: B>c | 
d>gd>B G>dB>G | F>cA>F G>dB>G | F>D^C>D E>FG>A | B>cd>^c e>dB>=c |
d>gd>B G>dB>G | A>ec>A G>dB>G | F>Ac>A F>DE>F | G2 G2 G2 :|
d2 | 
B>d^c>d =c>dA>d | B>dG>d F>dG>d | B>d^c>d =c>dA>d | B>d^c>d e>dB>=c |
d>gd>B G>dB>G | F>cA>F G>dB>G | F>Ac>A F>DE>F | G2 G2 G2 :|
